X: 2
T: The Morpeth Rant
R: reel
M: 4/4
L: 1/8
K: Gmaj
DF|G2DC B,G,B,D|ECEG FDFA|BGcA dBAG|FGAB cBAG|G2DC B,G,B,D|ECEG FDFA|BGcA BGAF|G2G2 G2:||:df|gdBG FAce|dBAG GFED|cAcA BGBG|F2D2 D2GF|ECEG cBAG|FDFA dcBA|dgfg ecAc|B2G2 G2:||


Tune 1310	Setting 26549

